X: 53
T:Jog on
M:6/8
L:1/8
Q:110
R:Jig
K:D
d2A d2e|f>gf ecA|ded a2g|f3 e3|-e2f g>ag|f>gf e>dc|ded cBc|B3 A3||

